X:57
C:Page 29
T:Kitty of Coleraine. MBe.57
S:Matthew Betham MS, Towcett Cumbria, 1815
O:England;Cumbria;Towcett
Z:VMP – Hugh Taylor, 2012
M:6/8
L:1/8
Q:3/8=60
R:.Jig
N:Someone has written in a different hand, prior to the tune title, “Kitty of Coleraine”
K:D
A/G/|FAd dfa|e/f/g/f/e/d/ ceA|dfa dgb|b/a/g/f/e/d/ {f}e2 A/G/|
FAd dfa|e/f/g/f/e/d/ ceA|dfa dgb|ABc d2:|
|:f/g/|afd ecA|afd ecA|afd (f/e/d/c/B/A/)|Ea^g !fermata!a2 A/G/|
FAd dfa|e/f/g/f/e/d/ ceA|dfa dgb|ABc d2:|

